X:932
T:Charming Molly
S:Bruce & Emmett's Drummers and Fifers Guide (1862), p. 93
M:2/4
L:1/16
Q:1/4=100
K:G
%%MIDI program 72
%%MIDI transpose 8
%%MIDI ratio 3 1
AB|c2cA B2BA|GABc dBGB|[1 c2cA B2BG|E2A2A2:|[2 gfge dBAG|E2"^fine"A2A2||A2|ABcd e2eg|
fagf edcB|ABcd e2eg|fagf e2fg|a2af g2ge|dBge dBGB|cdcA BcBG|"^D.C. al fine"E2A2A2||
